Origami/48x48/apps/io.elementary.code.svg

<svg width="48" height="48" version="1" xmlns="http://www.w3.org/2000/svg">
 <path d="m40 42v-36c0-1.108-0.892-2-2-2h-28c-1.108 0-2 0.892-2 2v36c0 1.108 0.892 2 2 2h28c1.108 0 2-0.892 2-2z" fill="#ccc"/>
 <path d="m21 18c-1.445369 1.4e-5 -2.211493 0.214124-2.9375 0.65625-0.719355 0.436176-1.0625 1.130436-1.0625 2.0625v1.78125c0 0.555667-0.2479 0.943915-0.6875 1.21875-0.432945 0.268875-0.413312 0.437506-1.3125 0.4375v1.6875c1.771732 4e-6 2 0.576183 2 1.6875v1.53125c0 1.021697 0.32727 1.79591 1 2.25 0.679383 0.46006 1.461383 0.675547 3 0.6875v-1.625c-0.765982-0.01195-1.160313-0.155308-1.5-0.40625-0.3397-0.250943-0.5-0.603813-0.5-1.09375v-1.6875c0-1.20094-0.599714-1.909901-2.125-2.125v-0.125c1.525286-0.233013 2.125-0.967249 2.125-2.15625v-1.65625c0-0.489927 0.1603-0.81752 0.5-1.0625 0.346348-0.250932 0.740679-0.407615 1.5-0.4375zm6 0v1.625c0.759321 0.02989 1.153652 0.186568 1.5 0.4375 0.3397 0.24498 0.5 0.572573 0.5 1.0625v1.65625c0 1.189001 0.599714 1.923237 2.125 2.15625v0.125c-1.525286 0.215099-2.125 0.92406-2.125 2.125v1.6875c0 0.489937-0.1603 0.842807-0.5 1.09375-0.339687 0.250942-0.734018 0.3943-1.5 0.40625v1.625c1.538617-0.01195 2.320617-0.22744 3-0.6875 0.67273-0.45409 1-1.228303 1-2.25v-1.53125c0-1.111317 0.228268-1.687496 2-1.6875v-1.6875c-0.899188 6e-6 -0.879555-0.168625-1.3125-0.4375-0.4396-0.274835-0.6875-0.663083-0.6875-1.21875v-1.78125c0-0.932064-0.343145-1.626324-1.0625-2.0625-0.726007-0.442126-1.492131-0.656236-2.9375-0.65625z" style="opacity:.1"/>
 <path d="m10 4c-1.108 0-2 0.892-2 2v1c0-1.108 0.892-2 2-2h28c1.108 0 2 0.892 2 2v-1c0-1.108-0.892-2-2-2z" fill="#fff" opacity=".2"/>
 <path d="m8 42v1c0 1.108 0.892 2 2 2h28c1.108 0 2-0.892 2-2v-1c0 1.108-0.892 2-2 2h-28c-1.108 0-2-0.892-2-2z" opacity=".2"/>
 <path d="m21 17c-1.445369 1.4e-5 -2.211493 0.214124-2.9375 0.65625-0.719355 0.436176-1.0625 1.130436-1.0625 2.0625v1.78125c0 0.555667-0.2479 0.943915-0.6875 1.21875-0.432945 0.268875-0.413312 0.437506-1.3125 0.4375v1.6875c1.771732 4e-6 2 0.576183 2 1.6875v1.53125c0 1.021697 0.32727 1.79591 1 2.25 0.679383 0.46006 1.461383 0.675547 3 0.6875v-1.625c-0.765982-0.01195-1.160313-0.155308-1.5-0.40625-0.3397-0.250943-0.5-0.603813-0.5-1.09375v-1.6875c0-1.20094-0.599714-1.909901-2.125-2.125v-0.125c1.525286-0.233013 2.125-0.967249 2.125-2.15625v-1.65625c0-0.489927 0.1603-0.81752 0.5-1.0625 0.346348-0.250932 0.740679-0.407615 1.5-0.4375zm6 0v1.625c0.759321 0.02989 1.153652 0.186568 1.5 0.4375 0.3397 0.24498 0.5 0.572573 0.5 1.0625v1.65625c0 1.189001 0.599714 1.923237 2.125 2.15625v0.125c-1.525286 0.215099-2.125 0.92406-2.125 2.125v1.6875c0 0.489937-0.1603 0.842807-0.5 1.09375-0.339687 0.250942-0.734018 0.3943-1.5 0.40625v1.625c1.538617-0.01195 2.320617-0.22744 3-0.6875 0.67273-0.45409 1-1.228303 1-2.25v-1.53125c0-1.111317 0.228268-1.687496 2-1.6875v-1.6875c-0.899188 6e-6 -0.879555-0.168625-1.3125-0.4375-0.4396-0.274835-0.6875-0.663083-0.6875-1.21875v-1.78125c0-0.932064-0.343145-1.626324-1.0625-2.0625-0.726007-0.442126-1.492131-0.656236-2.9375-0.65625z" style="fill:#446f7d"/>
</svg>

<svg xmlns="http://www.w3.org/2000/svg" width="48" height="48" version="1">
 <path fill="#ccc" d="m40 42v-36c0-1.108-0.892-2-2-2h-28c-1.108 0-2 0.892-2 2v36c0 1.108 0.892 2 2 2h28c1.108 0 2-0.892 2-2z"/>
 <path style="opacity:0.1" d="m 21,18 c -1.445369,1.4e-5 -2.211493,0.214124 -2.9375,0.65625 C 17.343145,19.092426 17,19.786686 17,20.71875 V 22.5 c 0,0.555667 -0.2479,0.943915 -0.6875,1.21875 -0.432945,0.268875 -0.413312,0.437506 -1.3125,0.4375 v 1.6875 c 1.771732,4e-6 2,0.576183 2,1.6875 v 1.53125 c 0,1.021697 0.32727,1.79591 1,2.25 0.679383,0.46006 1.461383,0.675547 3,0.6875 V 30.375 C 20.234018,30.36305 19.839687,30.219692 19.5,29.96875 19.1603,29.717807 19,29.364937 19,28.875 v -1.6875 c 0,-1.20094 -0.599714,-1.909901 -2.125,-2.125 v -0.125 C 18.400286,24.704487 19,23.970251 19,22.78125 V 21.125 c 0,-0.489927 0.1603,-0.81752 0.5,-1.0625 0.346348,-0.250932 0.740679,-0.407615 1.5,-0.4375 z m 6,0 v 1.625 c 0.759321,0.02989 1.153652,0.186568 1.5,0.4375 0.3397,0.24498 0.5,0.572573 0.5,1.0625 v 1.65625 c 0,1.189001 0.599714,1.923237 2.125,2.15625 v 0.125 C 29.599714,25.277599 29,25.98656 29,27.1875 v 1.6875 c 0,0.489937 -0.1603,0.842807 -0.5,1.09375 -0.339687,0.250942 -0.734018,0.3943 -1.5,0.40625 V 32 c 1.538617,-0.01195 2.320617,-0.22744 3,-0.6875 0.67273,-0.45409 1,-1.228303 1,-2.25 v -1.53125 c 0,-1.111317 0.228268,-1.687496 2,-1.6875 v -1.6875 c -0.899188,6e-6 -0.879555,-0.168625 -1.3125,-0.4375 C 31.2479,23.443915 31,23.055667 31,22.5 V 20.71875 C 31,19.786686 30.656855,19.092426 29.9375,18.65625 29.211493,18.214124 28.445369,18.000014 27,18 Z"/>
 <path fill="#fff" opacity=".2" d="m10 4c-1.108 0-2 0.892-2 2v1c0-1.108 0.892-2 2-2h28c1.108 0 2 0.892 2 2v-1c0-1.108-0.892-2-2-2z"/>
 <path opacity=".2" d="m8 42v1c0 1.108 0.892 2 2 2h28c1.108 0 2-0.892 2-2v-1c0 1.108-0.892 2-2 2h-28c-1.108 0-2-0.892-2-2z"/>
 <path style="fill:#446f7d" d="m 21,17 c -1.445369,1.4e-5 -2.211493,0.214124 -2.9375,0.65625 C 17.343145,18.092426 17,18.786686 17,19.71875 V 21.5 c 0,0.555667 -0.2479,0.943915 -0.6875,1.21875 -0.432945,0.268875 -0.413312,0.437506 -1.3125,0.4375 v 1.6875 c 1.771732,4e-6 2,0.576183 2,1.6875 v 1.53125 c 0,1.021697 0.32727,1.79591 1,2.25 0.679383,0.46006 1.461383,0.675547 3,0.6875 V 29.375 C 20.234018,29.36305 19.839687,29.219692 19.5,28.96875 19.1603,28.717807 19,28.364937 19,27.875 v -1.6875 c 0,-1.20094 -0.599714,-1.909901 -2.125,-2.125 v -0.125 C 18.400286,23.704487 19,22.970251 19,21.78125 V 20.125 c 0,-0.489927 0.1603,-0.81752 0.5,-1.0625 0.346348,-0.250932 0.740679,-0.407615 1.5,-0.4375 z m 6,0 v 1.625 c 0.759321,0.02989 1.153652,0.186568 1.5,0.4375 0.3397,0.24498 0.5,0.572573 0.5,1.0625 v 1.65625 c 0,1.189001 0.599714,1.923237 2.125,2.15625 v 0.125 C 29.599714,24.277599 29,24.98656 29,26.1875 v 1.6875 c 0,0.489937 -0.1603,0.842807 -0.5,1.09375 -0.339687,0.250942 -0.734018,0.3943 -1.5,0.40625 V 31 c 1.538617,-0.01195 2.320617,-0.22744 3,-0.6875 0.67273,-0.45409 1,-1.228303 1,-2.25 v -1.53125 c 0,-1.111317 0.228268,-1.687496 2,-1.6875 v -1.6875 c -0.899188,6e-6 -0.879555,-0.168625 -1.3125,-0.4375 C 31.2479,22.443915 31,22.055667 31,21.5 V 19.71875 C 31,18.786686 30.656855,18.092426 29.9375,17.65625 29.211493,17.214124 28.445369,17.000014 27,17 Z"/>
</svg>
